images/icons/github-icon.svg

<svg width="60" height="58" viewBox="0 0 60 58" fill="none" xmlns="http://www.w3.org/2000/svg">
<path fill-rule="evenodd" clip-rule="evenodd" d="M30.0754 0.833374C14.0075 0.833374 0.984543 13.8563 0.984543 29.9242C0.984543 42.775 9.31746 53.6805 20.8791 57.5305C22.3345 57.793 22.8595 56.8975 22.8595 56.1275C22.8595 55.4363 22.8362 53.6046 22.8275 51.1809C14.7337 52.9367 13.0245 47.2784 13.0245 47.2784C11.7062 43.9184 9.79579 43.023 9.79579 43.023C7.15621 41.2175 9.99704 41.2584 9.99704 41.2584C12.9195 41.4625 14.4508 44.2567 14.4508 44.2567C17.0466 48.7017 21.2641 47.4184 22.915 46.6746C23.1804 44.7934 23.9387 43.51 24.767 42.7838C18.3095 42.0517 11.5195 39.555 11.5195 28.4046C11.5195 25.2342 12.6541 22.6325 14.5062 20.6025C14.2116 19.8646 13.2054 16.9042 14.795 12.9025C14.795 12.9025 17.2362 12.118 22.7925 15.8805C25.1654 15.2349 27.6132 14.9054 30.0725 14.9005C32.5317 14.9044 34.9797 15.234 37.3525 15.8805C42.9116 12.115 45.35 12.9025 45.35 12.9025C46.9395 16.9042 45.942 19.8646 45.6387 20.6025C47.5054 22.6325 48.6254 25.2313 48.6254 28.4046C48.6254 39.5842 41.8295 42.04 35.3487 42.7605C36.3841 43.6588 37.3175 45.4321 37.3175 48.1446C37.3175 52.0355 37.2825 55.1738 37.2825 56.1275C37.2825 56.9063 37.8016 57.8105 39.2862 57.5246C50.842 53.6688 59.1662 42.7721 59.1662 29.9242C59.1662 13.8563 46.1433 0.833374 30.0754 0.833374Z" fill="#CCCCCC"/>
</svg>

<svg xmlns="http://www.w3.org/2000/svg" width="60" height="58" fill="none"><path fill="#CCC" fill-rule="evenodd" d="M30.075.833C14.008.833.985 13.856.985 29.924c0 12.851 8.332 23.757 19.894 27.607 1.455.262 1.98-.633 1.98-1.404 0-.69-.023-2.522-.032-4.946-8.093 1.756-9.803-3.903-9.803-3.903-1.318-3.36-3.228-4.255-3.228-4.255-2.64-1.806.201-1.765.201-1.765 2.922.204 4.454 2.999 4.454 2.999 2.596 4.445 6.813 3.161 8.464 2.418.265-1.882 1.024-3.165 1.852-3.891-6.457-.732-13.247-3.229-13.247-14.38 0-3.17 1.134-5.771 2.986-7.802-.294-.737-1.3-3.698.289-7.7 0 0 2.441-.784 7.998 2.979a27.942 27.942 0 0 1 7.28-.98c2.459.003 4.907.333 7.28.98 5.559-3.766 7.997-2.979 7.997-2.979 1.59 4.002.592 6.963.289 7.7 1.866 2.03 2.986 4.63 2.986 7.803 0 11.18-6.795 13.635-13.276 14.355 1.035.899 1.969 2.672 1.969 5.385 0 3.89-.035 7.029-.035 7.982 0 .78.519 1.683 2.003 1.398 11.556-3.856 19.88-14.753 19.88-27.6 0-16.069-13.023-29.092-29.09-29.092Z" clip-rule="evenodd"/></svg>
